!!!!SEGMENT: pl-wtm--r-90-n--003_noskowski-zygmunt--piesni-op-63-hej-wiosna.krn
!!!cenid: 18xx:2122
!!!COM: Noskowski, Zygmunt
!!!COM-rismid: pe106604
!!!CDT: 1846/05/02-1909/07/23
!!!CNT: Polish
!!!GTL: Pieśni op. 63
!!!OTL: Hej wiosna
!!!PDT: 1899
!!!AGN: Secular; Song
!!!SMS-siglum: PL-Wtm
!!!SMS-shelfmark: R 90/N
!!!SMS-shelfwork: 003 G
!!!SMS-variant:
!!!SMS-altvar:
!!!NIFC-rismid: 1001099975
!!!URL-scan: http://repozytorium.nifc.pl/skany/pl-wtm-nut--r90n
!!!ONB-nifc: UWAGA: w zbiorze 10 krótkich pieśni
!!!OMD: Moderato.
!!!key:
**kern	**kern	**text
*part1	*part1	*part1
*staff2	*staff1	*staff1
*Iempty	*Iempty	*
*I"	*I"	*
*clefF4	*clefG2	*
*k[b-]	*k[b-]	*
*F:	*F:	*
*M2/4	*M2/4	*
*>[A,B,A]	*>[A,B,A]	*>[A,B,A]
=1	=1	=1
*>A	*>A	*>A
!	!LO:TX:a:t=[segno]	!
8cL 8F\	16ccc\LL	.
.	16aa\	.
8cJ 8F\	16ccc\	.
.	16ddd\JJ	.
8cL 8F\	16bbn\LL	.
.	16aa\	.
8cJ 8F\	16gg\	.
.	16bb\JJ	.
=2	=2	=2
8cL 8F\	16ccc\LL	.
.	16aa\	.
8cJ 8F\	16gg\	.
.	16aa\JJ	.
!	!LO:TX:b:t=Fine	!
8c 8F\	8ff\	.
8r	8r	.
=3	=3	=3
*>B	*>B	*>B
8cL 8A 8F\	8f/	Hej,
8cJ 8A 8F\	4cc\	wios-
8cL 8F 8D\	.	.
8cJ 8F 8D\	(16a/LL	-na!
.	16b-/JJ)	.
=4	=4	=4
8cL 8G 8E\	8cc\	hej,
8cJ 8G 8E\	4dd\	wios-
8cL 8B- 8E\	.	.
8cJ 8B- 8E\	8g/	-na
=5	=5	=5
*	*^	*
8c 8A 8F\	8b-/	4.rcyy	Po-
!LO:TX:t=P:problem=skreślony akord	!	!	!
8r	8a/	.	-ra
!LO:TX:t=P:problem=dopisane ołówkiem 8A	!	!	!
8C\L	8cc\	.	to
8B-J 8C\	(<16a/LL	8e\	ra-
.	16g/JJ)	.	.
*	*v	*v	*
=6	=6	=6
8AL 8F\	8f/	-do-
8AJ 8F\	4c/	-sna
8A 8F\	.	.
8r	8cc\	We-
!!LO:LB:g=original
=7	=7	=7
8r	16b-/LL	-so-
.	16a/JJ	.
4B- 4C\	4g 4e/	-ła
8r	8cc\	a
=8	=8	=8
!LO:TX:t=P:problem=skreślony dźwięk	!	!
8r	16a/LL	ho-
.	16g/JJ	.
4G 4D;\	4f 4Bn;/	-ża
8r	(16e/LL	Pro-
.	16f/JJ)	.
=9	=9	=9
!LO:TX:t=P:problem=skreślony dźwięk	!LO:TX:t=P:problem=skreślone 8e	!
4r	8g/L	-mien-
.	8c/J	.
8G 8C\	8.b- 8.e/	-na
8r	.	.
.	16a/	jak
=10	=10	=10
!	!LO:TX:a:B:t=D.S. [segno]	!
8B-L 8F\	8g 8e/	zo-
8AJ 8F\	4f/	-rza.
8AL 8F\	.	.
8B-J 8F\	8r	.
=:|!	=:|!	=:|!
*-	*-	*-
!!!system-decoration: {(s1,s2)}
!!!RDF**kern: < = below
!!!AIN: 1 empty
!!!ENC: Marta Lawrence
!!!END: 2021-06-02
!!!ENC: Mateusz Solarz
!!!END: 2021-05-11
